assets/images/icon/event-icons/workshops.svg

<svg width="119" height="113" viewBox="0 0 119 113" fill="none" xmlns="http://www.w3.org/2000/svg">
<g opacity="0.3">
<path d="M80.398 61.1514C79.4708 61.1514 78.7205 60.4011 78.7205 59.4739C78.7205 48.8053 70.074 40.1252 59.445 40.1252C48.8159 40.1252 40.1694 48.8053 40.1694 59.4739C40.1694 60.4011 39.4191 61.1514 38.4919 61.1514C37.5647 61.1514 36.8145 60.4011 36.8145 59.4739C36.8145 46.954 46.9677 36.7703 59.445 36.7703C71.9222 36.7703 82.0755 46.954 82.0755 59.4739C82.0755 60.3981 81.3221 61.1514 80.398 61.1514Z" fill="#00003F"/>
<path d="M117.27 61.1512C116.343 61.1512 115.592 60.4009 115.592 59.4737V53.383C115.592 52.6357 114.982 52.0258 114.235 52.0258H109.682C107.495 52.0258 105.613 50.5404 105.101 48.4177C103.96 43.7025 102.093 39.2008 99.5498 35.0407C98.4091 33.1711 98.6928 30.7921 100.236 29.2489L103.463 26.022C103.991 25.4944 103.991 24.6313 103.463 24.1036L94.8468 15.4876C94.5906 15.2314 94.249 15.0911 93.8861 15.0911C93.5231 15.0911 93.1815 15.2314 92.9253 15.4876L89.7046 18.7113C88.1583 20.2577 85.7794 20.5413 83.9128 19.4006C79.7588 16.86 75.2571 14.9935 70.5297 13.8497C68.3978 13.3343 66.9155 11.4525 66.9155 9.26875V4.71215C66.9155 3.96491 66.3055 3.35493 65.5583 3.35493H53.3769C52.6296 3.35493 52.0197 3.96491 52.0197 4.71215V9.2657C52.0197 11.4494 50.5374 13.3313 48.4146 13.8467C48.4055 13.8497 48.3902 13.8528 48.3811 13.8528C43.6872 14.9874 39.1916 16.8509 35.0437 19.3854C35.0376 19.3884 35.0315 19.3945 35.0254 19.3976C33.1619 20.5382 30.7799 20.2546 29.2336 18.7083L26.019 15.4845C25.7628 15.2283 25.4212 15.088 25.0582 15.088C24.6953 15.088 24.3537 15.2283 24.0975 15.4845L15.4876 24.0975C15.2314 24.3537 15.0911 24.6953 15.0911 25.0583C15.0911 25.4212 15.2314 25.7628 15.4876 26.019L18.7144 29.2458C20.2577 30.7891 20.5413 33.168 19.4037 35.0315C19.3976 35.0407 19.3884 35.0529 19.3854 35.062C16.8631 39.1855 14.9996 43.6811 13.8528 48.3994C13.8497 48.4085 13.8497 48.4146 13.8467 48.4207C13.3343 50.5435 11.4494 52.0258 9.2657 52.0258H4.71215C3.96491 52.0258 3.35493 52.6357 3.35493 53.383V59.4737C3.35493 60.4009 2.60464 61.1512 1.67746 61.1512C0.750283 61.1512 0 60.3978 0 59.4737V53.383C0 50.7844 2.1136 48.6708 4.71215 48.6708H9.2657C9.89093 48.6708 10.4277 48.2499 10.5802 47.6461C10.5802 47.64 10.5833 47.6339 10.5833 47.6278C11.8093 42.5618 13.8101 37.7368 16.5306 33.287C16.5367 33.2778 16.5428 33.2656 16.5489 33.2565C16.86 32.7441 16.7777 32.0578 16.3354 31.6156L13.1147 28.3888C12.2241 27.4982 11.7331 26.3148 11.7331 25.0552C11.7331 23.7956 12.2241 22.6122 13.1147 21.7247L21.7277 13.1117C22.6183 12.2211 23.8017 11.7331 25.0582 11.7331C26.3179 11.7331 27.5012 12.2241 28.3888 13.1147L31.6095 16.3385C32.0517 16.7807 32.7319 16.8631 33.2656 16.5428C33.2717 16.5398 33.2778 16.5367 33.2809 16.5337C37.7307 13.8131 42.5557 11.8124 47.6217 10.5894C47.6308 10.5863 47.646 10.5833 47.6521 10.5833C48.2377 10.443 48.6647 9.90008 48.6647 9.26875V4.71215C48.6647 2.1136 50.7783 0 53.3769 0H65.5583C68.1568 0 70.2704 2.1136 70.2704 4.71215V9.2657C70.2704 9.89398 70.6974 10.4369 71.3105 10.5863C76.3856 11.8154 81.2106 13.8131 85.6574 16.5337C86.2002 16.8661 86.8865 16.7838 87.3318 16.3385L90.5586 13.1147C91.4492 12.2241 92.6326 11.7331 93.8891 11.7331C95.1488 11.7331 96.3321 12.2241 97.2227 13.1147L105.839 21.7308C107.675 23.5668 107.675 26.5558 105.839 28.3949L102.612 31.6217C102.167 32.067 102.084 32.7502 102.414 33.287C105.14 37.7521 107.141 42.574 108.364 47.6308C108.514 48.2438 109.053 48.6708 109.685 48.6708H114.238C116.837 48.6708 118.95 50.7844 118.95 53.383V59.4737C118.947 60.3978 118.197 61.1512 117.27 61.1512Z" fill="#00003F"/>
<path d="M77.3243 35.327C76.9918 35.327 76.6563 35.2294 76.3635 35.0251C75.4211 34.3663 74.4299 33.7563 73.4143 33.2104C72.5969 32.7712 72.2919 31.7556 72.7311 30.9382C73.1703 30.1208 74.1859 29.8158 75.0033 30.255C76.1317 30.8619 77.2358 31.539 78.285 32.2741C79.0444 32.8047 79.2305 33.8509 78.6998 34.6103C78.3765 35.077 77.855 35.327 77.3243 35.327Z" fill="#00003F"/>
<path d="M90.7759 61.1513C89.8487 61.1513 89.0985 60.401 89.0985 59.4738C89.0985 52.5535 86.6799 45.8132 82.2879 40.4941C81.9952 40.1403 81.6902 39.7895 81.3791 39.4449C80.7569 38.7587 80.8087 37.6973 81.495 37.0751C82.1812 36.4529 83.2426 36.5048 83.8648 37.191C84.2125 37.5722 84.551 37.9657 84.8743 38.3591C89.7603 44.276 92.4534 51.7758 92.4534 59.4738C92.4534 60.3979 91.7031 61.1513 90.7759 61.1513Z" fill="#00003F"/>
<path d="M28.1101 61.1509C27.1829 61.1509 26.4326 60.4007 26.4326 59.4735C26.4326 41.2105 41.24 26.3542 59.442 26.3542C62.0101 26.3542 64.5659 26.6501 67.0425 27.2357C67.9452 27.4492 68.5034 28.352 68.2899 29.2547C68.0764 30.1575 67.1736 30.7126 66.2708 30.5022C64.0474 29.9776 61.7508 29.7092 59.442 29.7092C43.0913 29.7092 29.7875 43.0618 29.7875 59.4735C29.7875 60.3976 29.0373 61.1509 28.1101 61.1509Z" fill="#00003F"/>
<path d="M80.1929 112.999H38.4607C37.5335 112.999 36.7832 112.249 36.7832 111.322V105.091C36.7832 101.934 38.0123 98.9636 40.2449 96.7311L45.5853 91.3906C47.2719 89.704 49.5106 88.7769 51.8956 88.7769H66.761C69.146 88.7769 71.3847 89.704 73.0713 91.3906L78.4118 96.7311C80.6443 98.9636 81.8734 101.931 81.8734 105.091V111.322C81.8704 112.249 81.1201 112.999 80.1929 112.999ZM40.1381 109.644H78.5154V105.091C78.5154 102.831 77.634 100.702 76.0359 99.1039L70.6954 93.7635C69.6432 92.7113 68.2463 92.1318 66.758 92.1318H51.8926C50.4042 92.1318 49.0073 92.7113 47.9551 93.7635L42.6147 99.1039C41.0165 100.702 40.1351 102.828 40.1351 105.091V109.644H40.1381Z" fill="#00003F"/>
<path d="M59.3261 86.9164C52.6468 86.9164 47.2148 81.4845 47.2148 74.8051C47.2148 68.1258 52.6468 62.6938 59.3261 62.6938C66.0055 62.6938 71.4374 68.1258 71.4374 74.8051C71.4374 81.4845 66.0024 86.9164 59.3261 86.9164ZM59.3261 66.0488C54.4981 66.0488 50.5698 69.9771 50.5698 74.8051C50.5698 79.6332 54.4981 83.5615 59.3261 83.5615C64.1542 83.5615 68.0825 79.6332 68.0825 74.8051C68.0825 69.9771 64.1542 66.0488 59.3261 66.0488Z" fill="#00003F"/>
<path d="M33.2475 112.999H1.94602C1.01884 112.999 0.268555 112.249 0.268555 111.322V105.091C0.268555 101.934 1.49768 98.9667 3.73023 96.7311L9.07066 91.3906C10.7573 89.704 12.9959 88.7769 15.381 88.7769H30.2463C32.6283 88.7769 34.87 89.704 36.5567 91.3906L38.5117 93.3457C39.1674 94.0014 39.1674 95.0628 38.5117 95.7185C37.8559 96.3742 36.7946 96.3742 36.1388 95.7185L34.1838 93.7635C33.1316 92.7113 31.7347 92.1318 30.2463 92.1318H15.381C13.8926 92.1318 12.4957 92.7113 11.4435 93.7635L6.10308 99.1039C4.50491 100.702 3.62348 102.828 3.62348 105.091V109.644H33.2444C34.1716 109.644 34.9219 110.395 34.9219 111.322C34.9219 112.249 34.1716 112.999 33.2475 112.999Z" fill="#00003F"/>
<path d="M22.8115 86.9164C16.1321 86.9164 10.7002 81.4845 10.7002 74.8051C10.7002 68.1258 16.1321 62.6938 22.8115 62.6938C29.4878 62.6938 34.9228 68.1258 34.9228 74.8051C34.9228 81.4845 29.4878 86.9164 22.8115 86.9164ZM22.8115 66.0488C17.9834 66.0488 14.0551 69.9771 14.0551 74.8051C14.0551 79.6332 17.9834 83.5615 22.8115 83.5615C27.6395 83.5615 31.5678 79.6332 31.5678 74.8051C31.5678 69.9771 27.6395 66.0488 22.8115 66.0488Z" fill="#00003F"/>
<path d="M116.947 112.999H85.6487C84.7215 112.999 83.9712 112.249 83.9712 111.322C83.9712 110.395 84.7215 109.645 85.6487 109.645H115.27V105.091C115.27 102.831 114.388 100.702 112.79 99.1039L107.45 93.7635C106.397 92.7113 105.001 92.1318 103.512 92.1318H88.6468C87.1584 92.1318 85.7615 92.7113 84.7093 93.7635L82.7543 95.7185C82.0986 96.3742 81.0372 96.3742 80.3814 95.7185C79.7257 95.0628 79.7257 94.0014 80.3814 93.3457L82.3365 91.3907C84.0231 89.704 86.2617 88.7769 88.6468 88.7769H103.512C105.894 88.7769 108.136 89.704 109.822 91.3907L115.163 96.7311C117.395 98.9636 118.625 101.931 118.625 105.091V111.322C118.625 112.249 117.874 112.999 116.947 112.999Z" fill="#00003F"/>
<path d="M96.0839 86.9164C89.4046 86.9164 83.9727 81.4845 83.9727 74.8051C83.9727 68.1258 89.4046 62.6938 96.0839 62.6938C102.763 62.6938 108.195 68.1258 108.195 74.8051C108.195 81.4845 102.76 86.9164 96.0839 86.9164ZM96.0839 66.0488C91.2559 66.0488 87.3276 69.9771 87.3276 74.8051C87.3276 79.6332 91.2559 83.5615 96.0839 83.5615C100.912 83.5615 104.84 79.6332 104.84 74.8051C104.84 69.9771 100.912 66.0488 96.0839 66.0488Z" fill="#00003F"/>
</g>
</svg>

<svg width="119" height="113" fill="none" xmlns="http://www.w3.org/2000/svg"><g opacity=".3" fill="#00003F"><path d="M80.398 61.151c-.927 0-1.677-.75-1.677-1.677 0-10.669-8.647-19.349-19.276-19.349-10.63 0-19.276 8.68-19.276 19.349a1.677 1.677 0 1 1-3.354 0c0-12.52 10.153-22.704 22.63-22.704 12.477 0 22.63 10.184 22.63 22.704a1.68 1.68 0 0 1-1.677 1.677Z"/><path d="M117.27 61.151c-.927 0-1.678-.75-1.678-1.677v-6.091a1.36 1.36 0 0 0-1.357-1.357h-4.553a4.699 4.699 0 0 1-4.581-3.608A46.653 46.653 0 0 0 99.55 35.04a4.7 4.7 0 0 1 .686-5.792l3.227-3.227a1.36 1.36 0 0 0 0-1.918l-8.616-8.616a1.35 1.35 0 0 0-.96-.397c-.364 0-.706.14-.962.397l-3.22 3.223a4.698 4.698 0 0 1-5.792.69 46.626 46.626 0 0 0-13.383-5.55 4.7 4.7 0 0 1-3.615-4.581V4.712a1.36 1.36 0 0 0-1.357-1.357H53.377a1.36 1.36 0 0 0-1.357 1.357v4.554a4.702 4.702 0 0 1-3.639 4.587 46.544 46.544 0 0 0-13.337 5.532c-.006.003-.012.01-.019.013a4.699 4.699 0 0 1-5.791-.69l-3.215-3.223a1.35 1.35 0 0 0-.96-.397c-.364 0-.705.14-.962.397l-8.61 8.613a1.35 1.35 0 0 0-.396.96c0 .363.14.705.397.961l3.226 3.227a4.698 4.698 0 0 1 .69 5.786c-.006.009-.016.02-.019.03a46.662 46.662 0 0 0-5.532 13.337c-.003.01-.003.016-.006.022a4.7 4.7 0 0 1-4.581 3.605H4.712a1.36 1.36 0 0 0-1.357 1.357v6.09a1.677 1.677 0 1 1-3.355 0v-6.09a4.717 4.717 0 0 1 4.712-4.712h4.554a1.35 1.35 0 0 0 1.314-1.025l.003-.018a50.003 50.003 0 0 1 5.948-14.341l.018-.03a1.349 1.349 0 0 0-.214-1.641l-3.22-3.227a4.683 4.683 0 0 1-1.382-3.334 4.67 4.67 0 0 1 1.382-3.33l8.613-8.613a4.679 4.679 0 0 1 3.33-1.379c1.26 0 2.443.491 3.33 1.382l3.221 3.223a1.353 1.353 0 0 0 1.672.196 49.909 49.909 0 0 1 14.371-5.95 1.345 1.345 0 0 0 1.013-1.315V4.712A4.717 4.717 0 0 1 53.377 0h12.181a4.717 4.717 0 0 1 4.712 4.712v4.554c0 .628.427 1.17 1.04 1.32a49.983 49.983 0 0 1 14.347 5.948c.543.332 1.23.25 1.675-.195l3.227-3.224a4.682 4.682 0 0 1 3.33-1.382c1.26 0 2.443.491 3.334 1.382l8.616 8.616a4.72 4.72 0 0 1 0 6.664l-3.227 3.227a1.348 1.348 0 0 0-.198 1.665 50.075 50.075 0 0 1 5.95 14.344c.15.613.689 1.04 1.321 1.04h4.553a4.717 4.717 0 0 1 4.712 4.712v6.09a1.683 1.683 0 0 1-1.68 1.678Z"/><path d="M77.324 35.327c-.332 0-.668-.098-.96-.302a29.739 29.739 0 0 0-2.95-1.815 1.676 1.676 0 0 1-.683-2.272 1.676 1.676 0 0 1 2.272-.683 32.869 32.869 0 0 1 3.282 2.02 1.678 1.678 0 0 1-.96 3.052Zm13.452 25.824c-.927 0-1.677-.75-1.677-1.677a29.87 29.87 0 0 0-7.72-20.03 1.678 1.678 0 0 1 2.486-2.253 33.233 33.233 0 0 1 8.589 22.283c0 .924-.75 1.677-1.678 1.677ZM28.11 61.15c-.927 0-1.677-.75-1.677-1.676 0-18.263 14.807-33.12 33.009-33.12 2.568 0 5.124.296 7.6.882a1.677 1.677 0 1 1-.771 3.266 29.77 29.77 0 0 0-6.829-.793c-16.35 0-29.654 13.353-29.654 29.765 0 .924-.75 1.677-1.678 1.677Zm52.083 51.849H38.46c-.928 0-1.678-.75-1.678-1.677v-6.231a11.75 11.75 0 0 1 3.462-8.36l5.34-5.34a8.86 8.86 0 0 1 6.31-2.614H66.76a8.86 8.86 0 0 1 6.31 2.614l5.34 5.34a11.742 11.742 0 0 1 3.462 8.36v6.231a1.68 1.68 0 0 1-1.68 1.677Zm-40.055-3.355h38.377v-4.553c0-2.26-.881-4.389-2.48-5.987l-5.34-5.34a5.53 5.53 0 0 0-3.937-1.632H51.893a5.53 5.53 0 0 0-3.938 1.631l-5.34 5.34a8.411 8.411 0 0 0-2.48 5.988v4.553h.003Zm19.188-22.728c-6.68 0-12.111-5.431-12.111-12.11 0-6.68 5.432-12.112 12.111-12.112 6.68 0 12.111 5.432 12.111 12.111 0 6.68-5.435 12.111-12.11 12.111Zm0-20.867c-4.828 0-8.756 3.928-8.756 8.756s3.928 8.756 8.756 8.756 8.756-3.928 8.756-8.756-3.928-8.756-8.756-8.756Z"/><path d="M33.248 112.999H1.946c-.927 0-1.677-.75-1.677-1.677v-6.231c0-3.157 1.229-6.124 3.461-8.36l5.34-5.34a8.86 8.86 0 0 1 6.311-2.614h14.865c2.382 0 4.624.927 6.31 2.614l1.956 1.955a1.677 1.677 0 1 1-2.373 2.373l-1.955-1.956a5.53 5.53 0 0 0-3.938-1.631H15.381a5.53 5.53 0 0 0-3.938 1.631l-5.34 5.34a8.411 8.411 0 0 0-2.48 5.988v4.553h29.621a1.677 1.677 0 0 1 .004 3.355ZM22.811 86.916c-6.679 0-12.11-5.431-12.11-12.11 0-6.68 5.431-12.112 12.11-12.112 6.677 0 12.112 5.432 12.112 12.111 0 6.68-5.435 12.111-12.112 12.111Zm0-20.867c-4.828 0-8.756 3.928-8.756 8.756s3.928 8.756 8.756 8.756c4.829 0 8.757-3.928 8.757-8.756S27.64 66.05 22.81 66.05Zm94.136 46.95H85.649a1.676 1.676 0 1 1 0-3.354h29.621v-4.554c0-2.26-.882-4.389-2.48-5.987l-5.34-5.34a5.531 5.531 0 0 0-3.938-1.632H88.647a5.53 5.53 0 0 0-3.938 1.631l-1.955 1.956a1.677 1.677 0 1 1-2.373-2.373l1.956-1.955a8.86 8.86 0 0 1 6.31-2.614h14.865c2.382 0 4.624.927 6.31 2.614l5.341 5.34a11.744 11.744 0 0 1 3.462 8.36v6.231c0 .927-.751 1.677-1.678 1.677ZM96.084 86.916c-6.68 0-12.111-5.431-12.111-12.11 0-6.68 5.432-12.112 12.11-12.112 6.68 0 12.112 5.432 12.112 12.111 0 6.68-5.435 12.111-12.111 12.111Zm0-20.867c-4.828 0-8.756 3.928-8.756 8.756s3.928 8.756 8.756 8.756 8.756-3.928 8.756-8.756-3.928-8.756-8.756-8.756Z"/></g></svg>
